X: 1
T: Jockey's Dance
Z: John Chambers <jc:trillian.mit.edu>
B: Harding "All Round Collection" #59 p.18 1905
R: jig
M: 6/8
L: 1/8
K: C
G \
| "C"c2c Gce | g2g g2e | "G7"gfd "C"fec | "Dm"dfe "G7"d2G \
| "C"c2c Gce | g2g g2e | "Dm"d2a "G7"g2f | "C"e2c c2 :|
B/c/ \
| "G"d2[BG] [B2G2]e | d2G G2g | "D7"^fed def | dab "G"g2 B/c/ \
| "G"d1[BG] [B2G2]e | d2G G2g | "D7"^fed def | "G"gde "G7"=fAB ||
y2 \
| "C"c2c Gce | g2g g2e | "G7"gfd "C"fec | "Dm"dfe "G7"d2G \
| "C"c2c Gce | g2g g2e | "Dm"d2a "G7"g2f | "C"e2c c2 |]
